X:75
T:L'autre jour sur la bruyere
C:trad.
A:Touraine
O:France
M:2/4
L:1/8
Q:1/4=110
K:F
FA|ccdA|ccFA|ccdA|c2A>A|A2 (3GAB|c>cA>A|A2 (3GAB|
c2A>A|A2 (3GAB|c2F2|F2 (3FAF|C2A>A|A2 (3GAB|c2d>c|(3cBA (3B2G|F2||
W:
W:L'autre jour sur la bruyre
W:Le long des ruisseaux coulants
W:J'aperois une bergre
W:Qui dormait le long des champs
W:Je lui pris bien doucement
W:Son, son, son joli son
W:Je lui pris bien doucement
W:Son joli petit panier blanc.
W:
W:La bergre se rveille
W:Se rveille en souriant
W:Eh! monsieur qu'est-c'que vous faites
W:Je dormais le long des champs
W:Vous m'prenez bien hardiment
W:Mon, mon, mon joli mon
W:Mon joli petit panier blanc.
W:
W:Ne crains rien de moi la belle,
W:Je suis l'fils d'un rich' marchand.
W:La marchandise que j'achte
W:Je la paie honntement
W:Je t'achte argent comptant,
W:Ton, ton, ton joli ton
W:Ton joli petit panier blanc.
W:
W:Mon panier n'est pas  vendre
W:Ni pour or, ni pour argent
W:C'est un don qu'm'a fait ma mre
W:Elle me dit assez souvent
W:De garder bien prcieus'ment
W:Mon, mon, mon joli mon
W:Mon joli petit panier blanc.
